src/assets/filled/Thorchain.svg

<svg width="24" height="24" viewBox="0 0 24 24"  xmlns="http://www.w3.org/2000/svg">
<path d="M16.3799 17.5692L6.07988 21.9092C5.00988 22.3592 4.07986 21.0292 4.86986 20.1792L12.6799 11.6992L16.7298 15.8192C17.2698 16.3592 17.0899 17.2792 16.3799 17.5692Z" />
<path d="M19.17 3.76918L12.68 11.6992L8.63003 7.59918C8.09003 7.04918 8.27001 6.12918 8.98001 5.83918L17.92 2.08918C18.96 1.64918 19.89 2.89918 19.17 3.76918Z" />
</svg>

<?xml version="1.0" encoding="UTF-8"?>
<svg width="24" height="24" viewBox="0 0 24 24" xmlns="http://www.w3.org/2000/svg">
 <path d="m16.38 17.569-10.3 4.34c-1.07 0.45-2-0.88-1.21-1.73l7.81-8.48 4.0499 4.12c0.54 0.54 0.3601 1.46-0.3499 1.75z"/>
 <path d="m19.17 3.7692-6.49 7.93-4.05-4.1c-0.54-0.55-0.36002-1.47 0.34998-1.76l8.94-3.75c1.04-0.44 1.97 0.81 1.25 1.68z"/>
</svg>
